X: 445
T: Bu Hal Zuhûr Etmesin
C: Sadettin Kaynak
O: Turkey
F: http://compmusic.upf.edu/node/140
N: acemasiran--sarki--duyek--bu_hal--sadettin_kaynak
N: makam= acemasiran
N: form= sarki
N: usul= duyek = 8/4
M: 8/4
L: 1/16
K: C _B   
Q: 1/4=120
%%MIDI tuningsystem comma53
c2 f4 g2 a8  | z2 g4 b2 a2 g2 f2 e2  | \
w:  Bu  hal  zu hûr   |  et me sin   | 
d2 a2 g2 f2 e2 f2 g2 gf  | f6 cd cB AG F4  | 
w:  *  bir  *  *  *  *  *  da  |  ha   SAZ  | 
c2 f4 g2 a8  | z2 g4 b2 a2 g2 f2 e2  | \
w:  Bu  hal  zu hûr   |  et me sin   | 
d2 a2 g2 f2 e2 f2 g2 gf  | f6 cd ef ge f4  | 
w:  *  bir  *  *  *  *  *  da  |  ha   SAZ  | 
e2 f2 e2 f2 g2 fe e3z  | d2 e4 f2 e4 d4  | \
w:  E der *  *  se   |  tü ten  gö nül  pür  | 
e3d c2 =B2 c2 Bc e2 dc  | 
w:  yân  *  *  *  *  *  *  *  o  | 
c6 de fg fe d4  | z2 d4 e2 f4 e4  | d2 c2 B2 A2 .B4 A2 B2  | \
w:  lur   SAZ  |  Kim se ye  söy  |  len *  *  *  mez  bu  a  | 
_e3d c3B A4 G2 A2  | 
w:  teş   *  *  *  *  bu  a  | 
c3B A3G F4 BA B2  | z2 B2 A2 d2 c3B A4  | \
w:  teş   *  *  *  *  ah    |  Söy *  le nir *  se   | 
z2 G4 B2 A2 G2 F2 E2  | 
w:  if fe te  *  kı  | 
D2 A2 G2 F2 E2 F2 G2 GF  | F6 de fg fe d4  | \
w:  *  tal  *  *  *  *  *  o  |  lur   SAZ  | 
z2 d4 e2 f4 e4  | 
w:  Kim se ye  söy  | 
d2 c2 B2 A2 .B4 A2 B2  | _e3d c3B A4 G2 A2  | \
w:  len *  *  *  mez  bu  a  |  teş   *  *  *  *  bu  a  | 
c3B A3G F4 BA B2  | 
w:  teş   *  *  *  *  ah    | 
z2 B2 A2 d2 c3B A4  | z2 G4 B2 A2 G2 F2 E2  | \
w:  Söy *  le nir *  se   |  if fe te  *  kı  | 
D2 A2 G2 F2 E2 F2 G2 GF  | 
w:  *  tal  *  *  *  *  *  o  | 
F6 _2/4Bc cB AB c4  | z2 _3/4d2 c2 _2/4B2 A2 AG A2 B2  | \
w:  lur   SAZ  |  Sön *  dür_ *  *  *  a te  | 
c2 c4 c2 c2 _3/4d2 c2 d2  | 
w:  şi   | 
z2 f2 e2 _2/4d2 c2 c_2/4B c4  | z2 a2 g2 f2 e2 gf f4  | \
w:  ah   |  ah   | 
z2 c4 c2 c_2/4B c2 _3/4d2 e2  | 
w:  ken di  e *  *  le  | 
_3/4d3c _2/4B2 c2 B2 c2 d2 dc  | c2 _3/4d2 c2 _2/4B2 A2 G2 e2 dc  | \
w:  min  |  le   *  *  *  *  *  *  a  | 
c6 ef e_3/4d c_2/4B c4  | 
w:  man   SAZ  | 
z2 _3/4d2 c2 _2/4B2 A2 AG A2 B2  | \
w:  Sön *  dür_ *  *  *  a te  | 
c2 c4 c2 c2 _3/4d2 c2 d2  | z2 f2 e2 _2/4d2 c2 c_2/4B c4  | 
w:  şi   |  ah   | 
z2 a2 g2 f2 e2 gf f4  | z2 c4 c2 c_2/4B c2 _3/4d2 e2  | \
w:  ah   |  ken di  e *  *  le  | 
_3/4d3c _2/4B2 c2 B2 c2 d2 dc  | 
w:  min  | 
c2 _3/4d2 c2 _2/4B2 A2 G2 e2 dc  | \
w:  le   *  *  *  *  *  *  a  | 
c6 ga gf fe f4  | z2 f6 c8  | z2 a4 g2 gf fe f4  | 
w:  man   SAZ  |  Bek le    |  uk *  ba *  *  *  da   | 
z4 e2 f2 g4 a4  | g4 f4 e4 d4  | b12 z4  | \
w:  ba ka lım  ne  |  ler  *  *  o  |  lur    | 
z4 e2 f2 e4 a4  | g3f e2 f2 e2 f2 g2 gf  | 
w:  ba ka lım  ne  |  ler  *  *  *  *  *  *  o  | 
f6 de fg fe d4  | z2 d4 e2 f4 e4  | d2 c2 B2 A2 .B4 A2 B2  | \
w:  lur   SAZ  |  Kim se ye  söy  |  len *  *  *  mez  bu  a  | 
_e3d c3B A4 G2 A2  | 
w:  teş   *  *  *  *  bu  a  | 
c3B A3G F4 BA B2  | z2 B2 A2 d2 c3B A4  | \
w:  teş   *  *  *  *  ah    |  Söy *  le nir *  se   | 
z2 G4 B2 A2 G2 F2 E2  | 
w:  if fe te  *  kı  | 
D2 A2 G2 F2 E2 F2 G2 GF  | F6 |
w:  *  tal  *  *  *  *  *  o  |  lur    | 


